icons/modus-outlined/rain.svg

<svg xmlns="http://www.w3.org/2000/svg" width="24" height="24" fill="currentColor" viewBox="0 0 24 24">
  <path d="m5,7.27c0,1.27,1.03,2.3,2.3,2.3s2.3-1.03,2.3-2.3-2.3-4.27-2.3-4.27c0,0-2.3,3-2.3,4.27Zm-1.9,9.98c0,.97.78,1.75,1.75,1.75s1.75-.78,1.75-1.75-1.75-3.25-1.75-3.25c0,0-1.75,2.28-1.75,3.25Zm10.5-4c0-.97-1.75-3.25-1.75-3.25,0,0-1.75,2.28-1.75,3.25s.78,1.75,1.75,1.75,1.75-.78,1.75-1.75Zm2.2-8.25s-1.8,2.35-1.8,3.34.81,1.8,1.8,1.8,1.8-.81,1.8-1.8-1.8-3.34-1.8-3.34Zm-3.8,14.32c0,.69.56,1.25,1.25,1.25s1.25-.56,1.25-1.25-1.25-2.32-1.25-2.32c0,0-1.25,1.63-1.25,2.32Zm7.15-5.32s-1.75,2.28-1.75,3.25.78,1.75,1.75,1.75,1.75-.78,1.75-1.75-1.75-3.25-1.75-3.25Z"/>
</svg>

<svg xmlns="http://www.w3.org/2000/svg" width="24" height="24" fill="currentColor" viewBox="0 0 24 24">
  <path d="M5 7.27a2.3 2.3 0 0 0 4.6 0C9.6 6 7.3 3 7.3 3S5 6 5 7.27m-1.9 9.98c0 .97.78 1.75 1.75 1.75s1.75-.78 1.75-1.75S4.85 14 4.85 14 3.1 16.28 3.1 17.25m10.5-4c0-.97-1.75-3.25-1.75-3.25s-1.75 2.28-1.75 3.25.78 1.75 1.75 1.75 1.75-.78 1.75-1.75M15.8 5S14 7.35 14 8.34s.81 1.8 1.8 1.8 1.8-.81 1.8-1.8S15.8 5 15.8 5M12 19.32a1.25 1.25 0 0 0 2.5 0c0-.69-1.25-2.32-1.25-2.32S12 18.63 12 19.32M19.15 14s-1.75 2.28-1.75 3.25.78 1.75 1.75 1.75 1.75-.78 1.75-1.75S19.15 14 19.15 14"/>
</svg>
